tools/download-figma-icons/icons/outlined-medium/surface.svg

<svg width="24" height="24" viewBox="0 0 24 24" fill="none" xmlns="http://www.w3.org/2000/svg">
<path fill-rule="evenodd" clip-rule="evenodd" d="M5.25442 3C4.83967 3 4.50442 2.66475 4.50442 2.25V0.75C4.50442 0.33525 4.83967 0 5.25442 0C5.66917 0 6.00442 0.33525 6.00442 0.75V2.25C6.00442 2.66475 5.66917 3 5.25442 3ZM5.9955 18.0003H17.9955V6.0003H5.9955V18.0003ZM18.7455 19.5003H5.2455C4.83075 19.5003 4.4955 19.1643 4.4955 18.7503V5.2503C4.4955 4.83555 4.83075 4.5003 5.2455 4.5003H18.7455C19.1602 4.5003 19.4955 4.83555 19.4955 5.2503V18.7503C19.4955 19.1643 19.1602 19.5003 18.7455 19.5003ZM17.9956 2.25C17.9956 2.66475 18.3308 3 18.7456 3C19.1603 3 19.4956 2.66475 19.4956 2.25V0.75C19.4956 0.33525 19.1603 0 18.7456 0C18.3308 0 17.9956 0.33525 17.9956 0.75V2.25ZM5.25442 24C4.83967 24 4.50442 23.6647 4.50442 23.25V21.75C4.50442 21.3353 4.83967 21 5.25442 21C5.66917 21 6.00442 21.3353 6.00442 21.75V23.25C6.00442 23.6647 5.66917 24 5.25442 24ZM17.9956 23.25C17.9956 23.6647 18.3308 24 18.7456 24C19.1603 24 19.4956 23.6647 19.4956 23.25V21.75C19.4956 21.3353 19.1603 21 18.7456 21C18.3308 21 17.9956 21.3353 17.9956 21.75V23.25ZM23.25 6.00511H21.75C21.3353 6.00511 21 5.66986 21 5.25511C21 4.84036 21.3353 4.50511 21.75 4.50511H23.25C23.6647 4.50511 24 4.84036 24 5.25511C24 5.66986 23.6647 6.00511 23.25 6.00511ZM21.75 19.4956H23.25C23.6647 19.4956 24 19.1603 24 18.7456C24 18.3308 23.6647 17.9956 23.25 17.9956H21.75C21.3353 17.9956 21 18.3308 21 18.7456C21 19.1603 21.3353 19.4956 21.75 19.4956ZM2.25 6.00511H0.75C0.33525 6.00511 0 5.66986 0 5.25511C0 4.84036 0.33525 4.50511 0.75 4.50511H2.25C2.66475 4.50511 3 4.84036 3 5.25511C3 5.66986 2.66475 6.00511 2.25 6.00511ZM0.75 19.4956H2.25C2.66475 19.4956 3 19.1603 3 18.7456C3 18.3308 2.66475 17.9956 2.25 17.9956H0.75C0.33525 17.9956 0 18.3308 0 18.7456C0 19.1603 0.33525 19.4956 0.75 19.4956Z" fill="black"/>
</svg>

<svg xmlns="http://www.w3.org/2000/svg" width="24" height="24" fill="none" viewBox="0 0 24 24"><path fill="currentColor" fill-rule="evenodd" d="M5.254 3a.75.75 0 0 1-.75-.75V.75a.75.75 0 1 1 1.5 0v1.5a.75.75 0 0 1-.75.75m.742 15h12V6h-12zm12.75 1.5h-13.5a.75.75 0 0 1-.75-.75V5.25a.75.75 0 0 1 .75-.75h13.5a.75.75 0 0 1 .75.75v13.5a.75.75 0 0 1-.75.75m-.75-17.25a.75.75 0 1 0 1.5 0V.75a.75.75 0 1 0-1.5 0zM5.254 24a.75.75 0 0 1-.75-.75v-1.5a.75.75 0 1 1 1.5 0v1.5a.75.75 0 0 1-.75.75m12.742-.75a.75.75 0 1 0 1.5 0v-1.5a.75.75 0 1 0-1.5 0zM23.25 6.005h-1.5a.75.75 0 1 1 0-1.5h1.5a.75.75 0 1 1 0 1.5m-1.5 13.49h1.5a.75.75 0 1 0 0-1.5h-1.5a.75.75 0 1 0 0 1.5M2.25 6.006H.75a.75.75 0 1 1 0-1.5h1.5a.75.75 0 1 1 0 1.5m-1.5 13.49h1.5a.75.75 0 1 0 0-1.5H.75a.75.75 0 1 0 0 1.5" clip-rule="evenodd"/></svg>
